!!!COM: Corelli, Arcangelo
!!!OPR: Sonata da chiesa
!!!OPS: 1
!!!ONM: 5
!!!OMV: 1
!!!OMD: Grave
**kern	**fb	**kern	**kern
*part3	*part3	*part2	*part1
*staff3	*	*staff2	*staff1
*I"Violone & Organo	*	*I"Violino II	*I"Violino I
*clefF4	*	*clefG2	*clefG2
*k[b-]	*	*k[b-]	*k[b-]
*M3/2	*	*M3/2	*M3/2
*MM132	*	*MM132	*MM132
=1	=1	=1	=1
2r	.	2r	2r
1BB-	.	2b-	2dd
.	.	2cc	2ee-X
=2	=2	=2	=2
1BB-	5	1dd	1ff
2D	6	[2b-	2ff
=3	=3	=3	=3
2E-X	6 5	2b-]	2gg
1F	5 4	1a	2.ff
.	3	.	.
.	.	.	4ee-X
=4	=4	=4	=4
1BB-	.	1b-	1dd
2B-	6	2dd	2gg
=5	=5	=5	=5
2A	6	2cc	2ff
1G	-r6	2.b-	2.ee-X
.	.	4b-	4ee-
=6	=6	=6	=6
1F	-7	1a	2ee-X
.	6	.	2dd
2D	6	[2b-	2ff
=7	=7	=7	=7
2E-X	.	2b-]	4ee-X
.	.	.	4dd
2F	5 4	2.b-	2.cc
2FF	3	.	.
.	.	4a	4cc
=8	=8	=8	=8
2BB-	.	2b-	2b-
2B-	.	2dd	2ff
2B-	.	2dd	2ff
=9	=9	=9	=9
1B-	6 nr4	1ee	1gg
2A	6	2ff	2ccc
=10	=10	=10	=10
1G	7	1ff	1bb-
2C	7	2ee	2bb-
=11	=11	=11	=11
1F	.	1ff	1aa
[2F	.	2f	2a
=12	=12	=12	=12
1F]	4 2	1g	1b-
[2E-X	6	2g	2cc
=13	=13	=13	=13
1E-]	4 2	1f	1a
[2D	6	[2f	[2b-
=14	=14	=14	=14
2D]	.	2f]	2b-]
1C	7 -	1e-X	2.b-
.	6	.	.
.	.	.	4a
=15	=15	=15	=15
1BB-	5	1d	2b-
.	6	.	[1gg
2B-	6	2dd	.
=16	=16	=16	=16
1A	7	1cc	2gg]
.	#6\	.	2.ff#X
2D	7 #	2cc	.
.	.	.	4ff#
=17	=17	=17	=17
1G	5	1b-	2gg
.	-r6	.	2ee-X
2G	.	2b-	2ee-
=18	=18	=18	=18
2F	6	2a	2dd
1E-X	6	1g	1cc
=19	=19	=19	=19
1D	#	2f#X	2dd
.	.	[1dd	2r
2BBn	6	.	2r
=20	=20	=20	=20
1C	9 -	2dd]	[1.ee-X
.	8	(4cc	.
.	.	4b-)	.
2C	6	(4a	.
.	.	4g)	.
=21	=21	=21	=21
1D	-9 #	1.f#X	2ee-]
.	8	.	(4dd
.	.	.	4cc)
2D	.	.	(4b-
.	.	.	4a)
=22	=22	=22	=22
1GG	.	1g	2b-
.	.	.	2cc
2GG	-7 5 n	2f	[2dd
=23	=23	=23	=23
1C	9 n	2e	2dd]
.	8	2f#X	[1cc
2C	.	2g	.
=24	=24	=24	=24
1D	7 #	2f#X	1cc]
.	.	2d	.
2E-X	5	[2g	2b-
=25	=25	=25	=25
2C	6 5 -	2g]	1.a
1D	5 4	2.g	.
.	#	.	.
.	.	4f#X	.
=26	=26	=26	=26
1GG	.	1g	2g
.	.	.	[1gg
2E-X	6	2r	.
=27	=27	=27	=27
1F	9 -	[1.aa-X	2gg]
.	8	.	(4ff
.	.	.	4ee-X)
2F	6 -	.	(4dd
.	.	.	4cc)
=28	=28	=28	=28
1G	-9 n	2aa-]	1.bn
.	8	(4gg	.
.	.	4ff)	.
2GG	-6 n	(4ee-X	.
.	5	4dd)	.
=29	=29	=29	=29
1C	-	2ee-X	1cc
.	.	2ff	.
2C	7 n	[2gg	2b-
=30	=30	=30	=30
1F	9 n	2gg]	2a
.	8	[1ff	2bn
2F	.	.	2cc
=31	=31	=31	=31
1G	7 n	1ff]	2bn
.	.	.	2g
2A-X	-r5	2ee-X	[2cc
=32	=32	=32	=32
2F	6 5 -	1.dd	2cc]
2G	5 4	.	2.cc
2GG	n	.	.
.	.	.	4bn
=33	=33	=33	=33
2C	.	2cc	2cc
1BBn	6	2r	(4gg
.	.	.	4ff)
.	.	2r	(4ee-X
.	.	.	4dd)
=34	=34	=34	=34
1C	-	2r	2ee-X
.	.	4ccc	[1ee-
.	.	4bb-	.
2C	6 -	4aa	.
.	.	4gg	.
=35	=35	=35	=35
1D	-9 #	1.ff#X	2ee-]
.	8	.	4dd
.	.	.	4cc
2D	.	.	4b-
.	.	.	4a
=36	=36	=36	=36
1GG	.	1gg	2b-
.	.	.	2cc
2GG	7 5 n	2ff	[2dd
=37	=37	=37	=37
1C	7 n	2ee	2dd]
.	8	2ff#X	[1cc
2C	.	2gg	.
=38	=38	=38	=38
1D	7 #	2ff#X	1cc]
.	.	2dd	.
2E-X	5	[2gg	2b-
=39	=39	=39	=39
2C	6 5	2gg]	1.a
1D	5 4	2.gg	.
.	#	.	.
.	.	4ff#X	.
=40	=40	=40	=40
1GG	.	1gg	1g
[2G	-r6	[2b-	[2ee-X
=41	=41	=41	=41
2G]	.	2b-]	2ee-]
1E-X	6	2.g	2.cc
.	.	4f#X	4dd
=42	=42	=42	=42
1.D	#	1.f#X	1.dd
=||	=||	=||	=||
*-	*-	*-	*-
!!!system-decoration: [{s1,s2},s3]
!!!YEM: CC BY-NC-SA 4.0; CCARH; DCML